X: 133
T: Ki Hivshiloo
C: Nissan Cohen Melamed 1968
D: Israeli Folk Dance Party
O: Israel
M: 2/4
L: 1/8
K: Bb
Q:1/4=160
FFEE|DD=B,_B,|B,=B,ED|E2E2|
FFEE|DD=B,_B,|B,=B,ED|B,2B,2|
FFFE|DEF2|FFFE|D=B,_B,2|
FFFE|DEF2|FFFE|D=B,_B,2|



